!! Isochronous pitch passage.
!! Bass-line.
!! From Fitzwilliam Virginal Book Vol. 1, No. 31, John Bull "Quadram Para???, measure 15ff.
!! Bass
!! 4/4 meter
**kern	**metpos
*M4/4	*M4/4
*tb16	*tb16
=15	=15
16r	1
16r	5
16d	4
16c#	5
16d	3
16e	5
16f#	4
16g	5
16a	2
16b	5
16cc#	4
16dd	5
16ee	3
16dd	5
16ee	4
16cc#	5
=16	=16
16dd	1
16a	5
16b	4
16ccn	5
16dd	3
16b	5
16cc	4
16b	5
16a	2
16g	5
16fn	4
16e	5
16d	3
16c	5
16B	4
16A	5
=17	=17
16G	1
16A	5
16B	4
16c	5
16d	3
16e	5
16f	4
16g	5
16a	2
16g	5
16f	4
16e	5
16d	3
16c	5
16B	4
16A	5
=18	=18
16G	1
16B	5
16c	4
16d	5
16e	3
16f	5
16g	4
16a	5
16b	2
16g	5
16a	4
16b	5
16cc	3
16b	5
16a	4
16g	5
=19	=19
16b	1
16a	5
16cc	4
16b	5
16a	3
16g	5
16f	4
16e	5
16d	2
16c	5
16B	4
16A	5
16G	3
16A	5
16B	4
16c	5
=20	=20
16d	1
16e	5
16f	4
16g	5
16a	3
16g	5
16f	4
16e	5
16d	2
16c	5
16B	4
16A	5
16G	3
16F	5
16E	4
16D	5
=21	=21
16C	1
16E	5
16F	4
16G	5
16A	3
16B	5
16c	4
16d	5
16e	2
16f	5
16g	4
16e	5
16f	3
16g	5
16a	4
16b	5
=22	=22
16cc	1
16b	5
16a	4
16g	5
16f	3
16e	5
16d	4
16c	5
16d	2
16e	5
16f	4
16g	5
16a	3
16g	5
16a	4
16b	5
=23	=23
16cc	1
16g	5
16b-	4
16a	5
16g	3
16f	5
16e	4
16d	5
16r	2
16r	5
16r	4
16r	5
16r	3
16r	5
16r	4
16r	5
=24	=24
*-	*-
